X: 2019
T: Yârin Bahçesinde
C: Atıf Baştuğ
O: Turkey
F: http://compmusic.upf.edu/node/140
N: hicaz-humayun--sarki--duyek--yarin_bahcesinde--atif_bastug
N: makam= hicaz-humayun
N: form= sarki
N: usul= duyek = 8/4
M: 8/4
L: 1/16
K: C _7/8B ^c  
Q: 1/4=264
%%MIDI tuningsystem comma53
A2 d2 c2 B2 B2 c2 B2 A2  | .B2 B6 E2 G2 B4  | \
w:  ARANAĞME  |   | 
z2 e2 d2 c2 c2 d2 B2 c2  | 
w:   | 
A8 z2 E2 A2 c2  | d4 c4 z2 d4 e2  | e2 e6 e8  | \
w:   |   |   | 
e4 g8 f2 e2  | e8 fg fe f4  | 
w:   |   | 
z4 f2 f2 f6 f2  | f2 f14  | z2 e4 g2 f2 e2 d2 e2  | c16  | \
w:   |   |   |   | 
e4 d6 c4 B2  | B2 B14  | 
w:   |   | 
e4 d8 B2 c2  | A16  | d4 c6 B4 B2  | B4 B12  | \
w:   |   |  Yâ rin  bah çe  |  sin de   | 
z2 e4 d2 c2 B4 c2  | A8 z2 A2 B2 c2  | 
w:  üç  gül_ a çıl  |  mış   SAZ  | 
d4 c6 d4 e2  | e2 e14  | e4 g8 f2 e2  | \
w:  Ak  gül  kır mı  |  zı  gül   |  il le  sa rı   | 
e8 fg fe f4  | z4 f2 f2 f6 f2  | 
w:  gül   SAZ  |  Ü çü  bir bi  | 
f4 f12  | z2 e4 g2 f2 e2 d2 e2  | c14 z2  | \
w:  rin den   |  faz la  sa çıl  |  mış    | 
e4 d6 c4 A2  | B2 B14  | e4 d8 B2 c2  | 
w:  Ak  gül  kır mı  |  zı  gül   |  il le  sa rı   | 
A16  | A2 d2 c2 B2 B2 c2 B2 A2  | .B2 B6 E2 G2 B4  | \
w:  gül    |  ARANAĞME  |   | 
z2 e2 d2 c2 c2 d2 B2 c2  | 
w:   | 
A8 z2 E2 A2 c2  | d4 c4 z2 d4 e2  | e2 e6 e8  | \
w:   |   |   | 
e4 g8 f2 e2  | e8 fg fe f4  | 
w:   |   | 
z4 f2 f2 f6 f2  | f2 f14  | z2 e4 g2 f2 e2 d2 e2  | c16  | \
w:   |   |   |   | 
e4 d6 c4 B2  | B2 B14  | 
w:   |   | 
e4 d8 B2 c2  | A16  | z4 g2 a2 a6 a2  | \
w:   |   |  Bi ri  kir pi  | 
a2 a14  | a2 b8-b2 a2 g2  | ^3/4f8 z2 d2 f2 g2  | 
w:  ği ni   |  sü züp  ge li  |  yor   SAZ  | 
a4 a2 b6 a2 g2  | g2 ^3/4f14  | e2 g8-g2 ^2/4f2 e2  | \
w:  *  Bi ri  yü re  |  ği mi   |  e zip  ge li  | 
d8 fg fe f4  | z4 f2 f2 f2 f6  | 
w:  yor   SAZ  |  Bi ri si  zül  | 
f2 f6 e2 g2 f4  | e2 g8-g2 f2 e2  | d8 z2 A2 c2 d2  | \
w:  fü nü  SAZ  |  dü züp  ge li  |  yor   SAZ  | 
e4 d6 c4 B2  | B2 B14  | 
w:  Ak  gül  kır mı  |  zı  gül   | 
e4 d8 c2 d2  | e8 fg fe f4  | z4 f2 f2 f2 f6  | \
w:  il le  sa rı   |  gül   SAZ  |  Bi ri si  zül  | 
f2 f6 e2 g2 f4  | e2 g8-g2 f2 e2  | 
w:  fü nü  SAZ  |  dü züp  ge li  | 
d8 z2 A2 c2 d2  | e4 d6 c4 B2  | B2 B14  | \
w:  yor   SAZ  |  Ak  gül  kır mı  |  zı  gül   | 
e4 d8 B2 c2  | A16  | A2 d2 c2 B2 B2 c2 B2 A2  | 
w:  il le  sa rı   |  gül    |  ARANAĞME  | 
.B2 B6 E2 G2 B4  | z2 e2 d2 c2 c2 d2 B2 c2  | \
w:   |   | 
A8 z2 E2 A2 c2  | d4 c4 z2 d4 e2  | 
w:   |   | 
e2 e6 e8  | e4 g8 f2 e2  | e8 fg fe f4  | \
w:   |   |   | 
z4 f2 f2 f6 f2  | f2 f14  | z2 e4 g2 f2 e2 d2 e2  | 
w:   |   |   | 
c16  | e4 d6 c4 B2  | B2 B14  | e4 d8 B2 c2  | A16  | \
w:   |   |   |   |   | 
A4 d2 c2 B4 B4  | B2 B6 z2 A2 c2 d2  | 
w:  *  Bi ri nin  kaş  |  la rı  SAZ  | 
e4 d8 B2 c2  | A16  | z4 d2 c2 d6 e2  | \
w:  ben zer  hi lâ  |  le    |  Bi ri nin  du  | 
e2 e6 z2 A2 c2 e2  | e4 g8 f2 e2  | e8 fg fe f4  | 
w:  da ğı  SAZ  |  ben zer  zü lâ  |  le   SAZ  | 
z4 f2 f2 f8  | f4 f12  | z2 e4 g2 f2 e2 d2 e2  | \
w:  Bi ri si   |  aç mış   |  kır mı zı  lâ  | 
c8 z2 G2 c2 d2  | e4 d6 c4 A2  | 
w:  le   SAZ  |  Ak  gül  kır mı  | 
B2 B14  | e4 d8 B2 c2  | A6 a2 g2 ^3/4f2 a4  | \
w:  zı  gül   |  il le  sa rı   |  gül   SAZ  | 
z4 g2 a2 a6 a2  | a2 a14  | a2 b8-b2 a2 g2  | 
w:  Bi ri  kir pi  |  ği ni   |  sü züp  ge li  | 
^3/4f8 z2 d2 f2 g2  | a4 a2 b6 a2 g2  | \
w:  yor   SAZ  |  *  Bi ri  yü re  | 
g2 ^3/4f14  | e2 g8-g2 ^2/4f2 e2  | d8 fg fe f4  | 
w:  ği mi   |  e zip  ge li  |  yor   SAZ  | 
z4 f2 f2 f2 f6  | f2 f6 e2 g2 f4  | e2 g8-g2 f2 e2  | \
w:  Bi ri si  zül  |  fü nü  SAZ  |  dü züp  ge li  | 
d8 z2 A2 c2 d2  | e4 d6 c4 B2  | 
w:  yor   SAZ  |  Ak  gül  kır mı  | 
B2 B14  | e4 d8 c2 d2  | e8 fg fe f4  | \
w:  zı  gül   |  il le  sa rı   |  gül   SAZ  | 
z4 f2 f2 f2 f6  | f2 f6 e2 g2 f4  | 
w:  Bi ri si  zül  |  fü nü  SAZ  | 
e2 g8-g2 f2 e2  | d8 z2 A2 c2 d2  | e4 d6 c4 B2  | \
w:  dü züp  ge li  |  yor   SAZ  |  Ak  gül  kır mı  | 
B2 B14  | e4 d8 B2 c2  | A16  | 
w:  zı  gül   |  il le  sa rı   |  gül    | 
|


